dist/img/icon/phone.svg

<svg width="16" height="16" viewBox="0 0 16 16" fill="none" xmlns="http://www.w3.org/2000/svg">
<g clip-path="url(#clip0_67_12910)">
<path d="M13.34 10.2533C12.52 10.2533 11.7267 10.12 10.9867 9.88C10.7533 9.8 10.4933 9.86 10.3133 10.04L9.26667 11.3533C7.38 10.4533 5.61333 8.75333 4.67333 6.8L5.97333 5.69333C6.15333 5.50667 6.20667 5.24667 6.13333 5.01333C5.88667 4.27333 5.76 3.48 5.76 2.66C5.76 2.3 5.46 2 5.1 2H2.79333C2.43333 2 2 2.16 2 2.66C2 8.85333 7.15333 14 13.34 14C13.8133 14 14 13.58 14 13.2133V10.9133C14 10.5533 13.7 10.2533 13.34 10.2533Z" fill="#AAAEB3"/>
</g>
<defs>
<clipPath id="clip0_67_12910">
<rect width="16" height="16" fill="white"/>
</clipPath>
</defs>
</svg>

<svg width="16" height="16" viewBox="0 0 16 16" fill="none" xmlns="http://www.w3.org/2000/svg"><g clip-path="url(#clip0_67_12910)"><path d="M13.34 10.253c-.82 0-1.613-.133-2.353-.373a.652.652 0 00-.674.16l-1.046 1.313c-1.887-.9-3.654-2.6-4.594-4.553l1.3-1.107a.68.68 0 00.16-.68A7.435 7.435 0 015.76 2.66c0-.36-.3-.66-.66-.66H2.793C2.433 2 2 2.16 2 2.66 2 8.853 7.153 14 13.34 14c.473 0 .66-.42.66-.787v-2.3c0-.36-.3-.66-.66-.66z" fill="#AAAEB3"/></g><defs><clipPath id="clip0_67_12910"><rect width="16" height="16" fill="#fff"/></clipPath></defs></svg>
